X:1
T: Lady Horne's Jig
C:
R:Jig
Q:180
K:C
M:6/8
L:1/16
g2|:c4g2 g2e2g2|g2e2a2 g4e2|c2e2g2 g2f2e2|d2e2d2 f4d2|
c4g2 g2e2g2|g2e2a2 g4e2|f2g2a2 g2f2e2|d2e2d2 f4d2|
c2d2c2 c2G2c2|c2G2c2 e4d2|c2d2c2 c2G2E2|D2E2D2 f4d2|
c2d2c2 c2G2E2|C2D2E2 c2G2E2|F2d2F2 E2c2E2|1D2E2D2 f4d2:|2D2E2D2C4||
